Numix-Circle/48x48/apps/moinmoin.svg

<svg xmlns="http://www.w3.org/2000/svg" xmlns:xlink="http://www.w3.org/1999/xlink" viewBox="0 0 48 48" width="48" height="48">
 <defs>
  <linearGradient id="0">
   <stop stop-color="#9fdceb"/>
   <stop offset="1" stop-color="#71b8de"/>
  </linearGradient>
  <linearGradient xlink:href="#0" id="1" gradientUnits="userSpaceOnUse" gradientTransform="matrix(0.875,0,0,0.875,3,-923.81708)" y1="1053.16" x2="0" y2="1004.85"/>
  <clipPath>
   <rect width="48" height="52.27" x="-65.49" y="-6.407" opacity="0.769" fill="#93c849"/>
  </clipPath>
 </defs>
 <rect height="46" rx="23" y="1" x="1" width="46" opacity="0.5" fill="#ffffff" fill-rule="evenodd"/>
 <rect transform="scale(1,-1)" height="42" rx="21" y="-45" x="3" width="42" fill="url(#1)"/>
 <path d="M 23.84375 12.25 C 22.088757 12.25 20.65625 13.682507 20.65625 15.4375 L 18.25 17.40625 L 14.84375 19.34375 L 14.9375 25.65625 L 19.21875 28.4375 L 22.34375 26.46875 L 24.96875 26.15625 L 28.40625 28.375 L 25.75 30.0625 C 25.212039 29.66105 24.56423 29.40625 23.84375 29.40625 C 23.088972 29.40625 22.392913 29.659049 21.84375 30.09375 L 19.375 28.53125 L 14.84375 29.125 L 20.625 32.78125 C 20.706648 34.487948 22.116831 35.84375 23.84375 35.84375 C 25.496194 35.84375 26.845324 34.602571 27.03125 33 L 29.34375 31.03125 L 31.34375 26.40625 L 26.84375 23.84375 L 22.1875 22.53125 L 17.375 25.9375 C 17.375 25.9375 16.9375 23.6875 17.15625 23.53125 C 17.375 23.375 18.96875 20.15625 18.96875 20.15625 L 21.9375 17.96875 C 22.467782 18.365525 23.130506 18.59375 23.84375 18.59375 C 24.548643 18.59375 25.191723 18.357125 25.71875 17.96875 L 28.1875 20.09375 L 30.65625 18.1875 L 27.03125 15.46875 C 27.031359 15.457916 27.03125 15.44836 27.03125 15.4375 L 27.03125 15.3125 C 26.962877 13.608439 25.549182 12.25 23.84375 12.25 z " fill="#c9c9c9"/>
 <path d="M 16.5 16.34375 C 14.549744 16.34375 12.96875 17.924744 12.96875 19.875 C 12.96875 21.119293 13.621323 22.214785 14.59375 22.84375 L 14.59375 25.5 C 13.621323 26.128965 12.96875 27.224457 12.96875 28.46875 C 12.96875 30.419006 14.549744 32 16.5 32 C 18.450256 32 20.03125 30.419006 20.03125 28.46875 L 20.03125 28.34375 C 19.979807 27.061629 19.242144 25.982901 18.1875 25.40625 L 18.15625 22.96875 C 18.232658 22.928008 18.33332 22.921065 18.40625 22.875 L 20.3125 24.0625 C 20.312134 24.083452 20.3125 24.103961 20.3125 24.125 C 20.3125 26.075256 21.893494 27.65625 23.84375 27.65625 C 25.762447 27.65625 27.324973 26.125377 27.375 24.21875 L 29.34375 22.8125 C 29.453371 22.886559 29.569585 22.938399 29.6875 23 L 29.71875 25.34375 C 28.576816 25.928724 27.78125 27.097543 27.78125 28.46875 C 27.78125 30.419006 29.362244 32 31.3125 32 C 33.262756 32 34.84375 30.419006 34.84375 28.46875 L 34.84375 28.34375 C 34.793296 27.086276 34.084518 26.02267 33.0625 25.4375 L 33.09375 22.90625 C 34.133236 22.291662 34.84375 21.170059 34.84375 19.875 L 34.84375 19.71875 C 34.76777 17.825093 33.20768 16.34375 31.3125 16.34375 C 29.541994 16.34375 28.067726 17.644382 27.8125 19.34375 L 25.46875 21 C 24.980342 20.745303 24.431112 20.59375 23.84375 20.59375 C 23.290085 20.59375 22.778918 20.741633 22.3125 20.96875 L 20 19.5625 C 19.84466 17.746107 18.340881 16.34375 16.5 16.34375 z " fill="#f9f9f9"/>
</svg>

<svg viewBox="0 0 48 48"><defs><linearGradient id="1" gradientUnits="userSpaceOnUse" y1="15" x2="0" y2="11" gradientTransform="matrix(15.333333,0,0,11.5,414.99999,-125.5)"><stop/><stop offset="1" stop-opacity="0"/></linearGradient><clipPath id="clipPath-465231268"><g transform="translate(0,-1004.3622)"><path d="m -24 13 c 0 1.105 -0.672 2 -1.5 2 -0.828 0 -1.5 -0.895 -1.5 -2 0 -1.105 0.672 -2 1.5 -2 0.828 0 1.5 0.895 1.5 2 z" transform="matrix(15.333333,0,0,11.5,414.99999,878.8622)" fill="#1890d0"/></g></clipPath><clipPath id="clipPath-473269528"><g transform="translate(0,-1004.3622)"><path d="m -24 13 c 0 1.105 -0.672 2 -1.5 2 -0.828 0 -1.5 -0.895 -1.5 -2 0 -1.105 0.672 -2 1.5 -2 0.828 0 1.5 0.895 1.5 2 z" transform="matrix(15.333333,0,0,11.5,414.99999,878.8622)" fill="#1890d0"/></g></clipPath></defs><g><g transform="translate(0,-1004.3622)"><path d="m 25 1006.36 c -12.703 0 -23 10.298 -23 23 0 6.367 2.601 12.12 6.781 16.281 4.085 3.712 9.514 5.969 15.469 5.969 12.703 0 23 -10.297 23 -23 0 -5.954 -2.256 -11.384 -5.969 -15.469 -4.165 -4.181 -9.914 -6.781 -16.281 -6.781 z m 16.281 6.781 c 3.854 4.113 6.219 9.637 6.219 15.719 0 12.703 -10.297 23 -23 23 -6.081 0 -11.606 -2.364 -15.719 -6.219 4.16 4.144 9.883 6.719 16.219 6.719 12.703 0 23 -10.297 23 -23 0 -6.335 -2.575 -12.06 -6.719 -16.219 z" opacity="0.05"/><path d="m 41.28 1013.14 c 3.712 4.085 5.969 9.514 5.969 15.469 0 12.703 -10.297 23 -23 23 -5.954 0 -11.384 -2.256 -15.469 -5.969 4.113 3.854 9.637 6.219 15.719 6.219 12.703 0 23 -10.297 23 -23 0 -6.081 -2.364 -11.606 -6.219 -15.719 z" opacity="0.1"/><path transform="matrix(15.333333,0,0,11.5,415.24999,879.11222)" d="m -24 13 a 1.5 2 0 1 1 -3 0 1.5 2 0 1 1 3 0 z" opacity="0.2"/></g></g><g><g transform="translate(0,-1004.3622)"><path d="m -24 13 c 0 1.105 -0.672 2 -1.5 2 -0.828 0 -1.5 -0.895 -1.5 -2 0 -1.105 0.672 -2 1.5 -2 0.828 0 1.5 0.895 1.5 2 z" transform="matrix(15.333333,0,0,11.5,414.99999,878.8622)" fill="#80c4e2"/></g></g><g><path d="m 47 24 c 0 12.703 -10.297 23 -23 23 -12.703 0 -23 -10.297 -23 -23 0 -12.703 10.297 -23 23 -23 12.703 0 23 10.297 23 23 z" opacity="0.15" fill="url(#1)"/></g><g><g clip-path="url(#clipPath-465231268)"><g transform="translate(0,1)"><g opacity="0.1"><!-- color: #80c4e2 --><g><path d="m 23.844 12.25 c -1.754 0 -3.188 1.434 -3.188 3.188 l -2.406 1.969 l -3.406 1.938 l 0.094 6.313 l 4.281 2.781 l 3.125 -1.969 l 2.625 -0.313 l 3.438 2.219 l -2.656 1.688 c -0.535 -0.398 -1.184 -0.656 -1.906 -0.656 c -0.754 0 -1.449 0.254 -2 0.691 l -2.469 -1.566 l -4.531 0.598 l 5.781 3.652 c 0.082 1.707 1.492 3.066 3.219 3.066 c 1.652 0 3 -1.242 3.188 -2.844 l 2.316 -1.973 l 2 -4.625 l -4.5 -2.563 l -4.656 -1.313 l -4.813 3.406 c 0 0 -0.441 -2.25 -0.223 -2.406 c 0.223 -0.156 1.816 -3.375 1.816 -3.375 l 2.969 -2.188 c 0.527 0.398 1.191 0.625 1.906 0.625 c 0.703 0 1.348 -0.238 1.875 -0.625 l 2.469 2.125 l 2.469 -1.906 l -3.625 -2.719 c 0 -0.012 0 -0.02 0 -0.031 l 0 -0.125 c -0.07 -1.703 -1.484 -3.063 -3.188 -3.063 m -0.004 0" fill="#000" stroke="none" fill-rule="nonzero" fill-opacity="1"/><path d="m 16.5 16.344 c -1.949 0 -3.531 1.582 -3.531 3.531 c 0 1.242 0.652 2.34 1.625 2.969 l 0 2.656 c -0.973 0.629 -1.625 1.723 -1.625 2.969 c 0 1.949 1.582 3.531 3.531 3.531 c 1.949 0 3.531 -1.582 3.531 -3.531 l 0 -0.125 c -0.051 -1.281 -0.789 -2.359 -1.844 -2.938 l -0.031 -2.438 c 0.074 -0.043 0.176 -0.047 0.25 -0.094 l 1.906 1.188 c 0 0.02 0 0.039 0 0.063 c 0 1.949 1.582 3.531 3.531 3.531 c 1.918 0 3.48 -1.531 3.531 -3.438 l 1.969 -1.406 c 0.109 0.074 0.227 0.125 0.344 0.188 l 0.031 2.344 c -1.145 0.586 -1.938 1.754 -1.938 3.125 c 0 1.949 1.578 3.531 3.531 3.531 c 1.949 0 3.531 -1.582 3.531 -3.531 l 0 -0.125 c -0.051 -1.258 -0.762 -2.32 -1.781 -2.906 l 0.031 -2.531 c 1.039 -0.613 1.75 -1.734 1.75 -3.03 l 0 -0.156 c -0.078 -1.895 -1.637 -3.375 -3.531 -3.375 c -1.773 0 -3.246 1.301 -3.5 3 l -2.344 1.656 c -0.488 -0.258 -1.039 -0.406 -1.625 -0.406 c -0.555 0 -1.066 0.145 -1.531 0.375 l -2.316 -1.406 c -0.152 -1.816 -1.656 -3.219 -3.5 -3.219 m 0.004 -0.004" fill="#000" stroke="none" fill-rule="nonzero" fill-opacity="1"/></g></g></g></g></g><g><g clip-path="url(#clipPath-473269528)"><!-- color: #80c4e2 --><g><path d="m 23.844 12.25 c -1.754 0 -3.188 1.434 -3.188 3.188 l -2.406 1.969 l -3.406 1.938 l 0.094 6.313 l 4.281 2.781 l 3.125 -1.969 l 2.625 -0.313 l 3.438 2.219 l -2.656 1.688 c -0.535 -0.398 -1.184 -0.656 -1.906 -0.656 c -0.754 0 -1.449 0.254 -2 0.691 l -2.469 -1.566 l -4.531 0.598 l 5.781 3.652 c 0.082 1.707 1.492 3.066 3.219 3.066 c 1.652 0 3 -1.242 3.188 -2.844 l 2.316 -1.973 l 2 -4.625 l -4.5 -2.563 l -4.656 -1.313 l -4.813 3.406 c 0 0 -0.441 -2.25 -0.223 -2.406 c 0.223 -0.156 1.816 -3.375 1.816 -3.375 l 2.969 -2.188 c 0.527 0.398 1.191 0.625 1.906 0.625 c 0.703 0 1.348 -0.238 1.875 -0.625 l 2.469 2.125 l 2.469 -1.906 l -3.625 -2.719 c 0 -0.012 0 -0.02 0 -0.031 l 0 -0.125 c -0.07 -1.703 -1.484 -3.063 -3.188 -3.063 m -0.004 0" fill="#c8c8c8" stroke="none" fill-rule="nonzero" fill-opacity="1"/><path d="m 16.5 16.344 c -1.949 0 -3.531 1.582 -3.531 3.531 c 0 1.242 0.652 2.34 1.625 2.969 l 0 2.656 c -0.973 0.629 -1.625 1.723 -1.625 2.969 c 0 1.949 1.582 3.531 3.531 3.531 c 1.949 0 3.531 -1.582 3.531 -3.531 l 0 -0.125 c -0.051 -1.281 -0.789 -2.359 -1.844 -2.938 l -0.031 -2.438 c 0.074 -0.043 0.176 -0.047 0.25 -0.094 l 1.906 1.188 c 0 0.02 0 0.039 0 0.063 c 0 1.949 1.582 3.531 3.531 3.531 c 1.918 0 3.48 -1.531 3.531 -3.438 l 1.969 -1.406 c 0.109 0.074 0.227 0.125 0.344 0.188 l 0.031 2.344 c -1.145 0.586 -1.938 1.754 -1.938 3.125 c 0 1.949 1.578 3.531 3.531 3.531 c 1.949 0 3.531 -1.582 3.531 -3.531 l 0 -0.125 c -0.051 -1.258 -0.762 -2.32 -1.781 -2.906 l 0.031 -2.531 c 1.039 -0.613 1.75 -1.734 1.75 -3.03 l 0 -0.156 c -0.078 -1.895 -1.637 -3.375 -3.531 -3.375 c -1.773 0 -3.246 1.301 -3.5 3 l -2.344 1.656 c -0.488 -0.258 -1.039 -0.406 -1.625 -0.406 c -0.555 0 -1.066 0.145 -1.531 0.375 l -2.316 -1.406 c -0.152 -1.816 -1.656 -3.219 -3.5 -3.219 m 0.004 -0.004" fill="#f9f9f9" stroke="none" fill-rule="nonzero" fill-opacity="1"/></g></g></g><g><path d="m 40.03 7.531 c 3.712 4.084 5.969 9.514 5.969 15.469 0 12.703 -10.297 23 -23 23 c -5.954 0 -11.384 -2.256 -15.469 -5.969 4.178 4.291 10.01 6.969 16.469 6.969 c 12.703 0 23 -10.298 23 -23 0 -6.462 -2.677 -12.291 -6.969 -16.469 z" opacity="0.1"/></g></svg>
